X: 210
T: Easter Thursday
P: Longways for as many as will
%R: minuet
B: "Caledonian Country Dances" printed by John Walsh for John Johnson, London
S: 1: CCDTB http://imslp.org/wiki/Caledonian_Country_Dances_with_a_Thorough_Bass_(Various) p.93
Z: 2013 John Chambers <jc:trillian.mit.edu>
M: 3/2
L: 1/8
K: Dm
% - - - - - - - - - - - - - - - - - - - - - - - - -
V: 1
[| d4 def2 e2d2 | e2 A4 c2 B2A2 | B4 Bcd2 c2B2 | c2 F4 c2 B2A2 | GAB2 AGF2 GFE2 | FED2 FGA2 HD4 |]
[| agfe f2a2 d2a2 | bagf e2g2 c2g2 | agfe d2f2 B2f2 | gfed ^c2e2 A2F2- | F2 G4 A4 B2- | B2 A4 d2 e2^c2 "_D.C."|]
% - - - - - - - - - - - - - - - - - - - - - - - - -
V: 2 clef=bass middle=d
[| d4 z2d2 ^c2d2 | A4 a4 d4 | g2f2 e2d2 e4 | f4 a4 g2^f2 | g4 d4 a4 | d4 z4 HD4 |]
[| ^c4 d4 f4 | g4 c4 e4 | f4 b4 d4 | e4 a4 f4 | d4 e4 f4 | g4 f2d2 g2a2 |]
% - - - - - - - - - - - - - - - - - - - - - - - - -
%%begintext align
%% The first Cu. Back to Back with the 2d Cu. and then with their Partners .|
%% the first Cu. turn the 2d Cu. then turn their own :|
%% Me?? all 4 and sett then turn single and clap Hands all 4 going quite round .|
%% then the 1st Cu. go the figure thro' the 2d Cu. and cross over and turn their own Partners :|
%%endtext

%%sep 1 1 500
%%sep 1 1 500
